usr/share/icons/biglinux-icons-material/scalable/apps/org.gabmus.hydrapaper.svg

<svg xmlns="http://www.w3.org/2000/svg" width="24" height="24"><defs><radialGradient id="a" cx="0" cy="0" r="1" fx="0" fy="0" gradientTransform="matrix(0 16.5 -16.5 0 9 .75)" gradientUnits="userSpaceOnUse" spreadMethod="pad"><stop offset="0" style="stop-opacity:1;stop-color:#fafafa"/><stop offset="1" style="stop-opacity:1;stop-color:silver"/></radialGradient></defs><path d="M7.195.836c.09 0 .176-.012.258-.035a23.86 23.86 0 0 1 3.231.008 10.26 10.26 0 0 1 2.836.636c1.519.625 2.558 1.711 3.121 3.254.316.93.507 1.887.566 2.867a21.227 21.227 0 0 1-.086 3.696 8.976 8.976 0 0 1-.672 2.488c-.637 1.383-1.672 2.336-3.101 2.859a11.693 11.693 0 0 1-3.575.618 15.998 15.998 0 0 1-4.089-.309c-2.481-.551-4.016-2.066-4.594-4.543a14.244 14.244 0 0 1-.336-3.383c-.027-1.211.101-2.41.387-3.59.609-2.312 2.078-3.746 4.406-4.3A10.27 10.27 0 0 1 7.195.836Z" style="fill:url(#a);fill-rule:evenodd;stroke:none" transform="matrix(1.33333 0 0 1.33333 0 0)"/><g style="stroke-width:3.73333" transform="matrix(.26786 0 0 .26786 -7.286 3.429)"><rect width="48" height="36" x="44" y="10" fill="#f35a23" rx="3" ry="3" style="stroke-width:3.73333;paint-order:stroke fill markers"/><rect width="44" height="32" x="46" y="12" opacity=".15" rx="1.048" ry="1.067" style="stroke-width:3.73333;paint-order:stroke fill markers"/><rect width="48" height="36" x="48" y="14" fill="#8bc34a" rx="3" ry="3" style="stroke-width:3.73333;paint-order:stroke fill markers"/><rect width="44" height="32" x="50" y="16" opacity=".15" rx="1.048" ry="1.067" style="stroke-width:3.73333;paint-order:stroke fill markers"/><rect width="48" height="36" x="52" y="18" fill="#29b6f6" rx="3" ry="3" style="stroke-width:3.73333;paint-order:stroke fill markers"/><path d="M55 20c-.58 0-1.047.475-1.047 1.066v29.867c0 .591.467 1.067 1.047 1.067h31.953l11-11V21.066c0-.591-.466-1.067-1.047-1.067z" opacity=".15" style="stroke-width:3.73333;paint-order:stroke fill markers"/><path fill="#6fcdf9" d="m87 52 11-11h-9.953c-.58 0-1.047.475-1.047 1.066Z" style="stroke-width:3.73333;paint-order:stroke fill markers"/><path d="M98 41 87 52h9.953c.58 0 1.047-.475 1.047-1.066Z" opacity=".05" style="stroke-width:3.73333;paint-order:stroke fill markers"/></g></svg>

<?xml version="1.0" encoding="UTF-8" standalone="no"?>
<svg
   width="24"
   height="24"
   version="1.1"
   id="svg7"
   sodipodi:docname="org.gabmus.hydrapaper.svg"
   inkscape:version="1.3 (0e150ed6c4, 2023-07-21)"
   xmlns:inkscape="http://www.inkscape.org/namespaces/inkscape"
   xmlns:sodipodi="http://sodipodi.sourceforge.net/DTD/sodipodi-0.dtd"
   xmlns="http://www.w3.org/2000/svg"
   xmlns:svg="http://www.w3.org/2000/svg">
  <defs
     id="defs7">
    <radialGradient
       fx="0"
       fy="0"
       cx="0"
       cy="0"
       r="1"
       gradientUnits="userSpaceOnUse"
       gradientTransform="matrix(0,16.5,-16.5,0,8.999651,0.749985)"
       spreadMethod="pad"
       id="radialGradient868-3">
      <stop
         style="stop-opacity:1;stop-color:#fafafa"
         offset="0"
         id="stop864-6" />
      <stop
         style="stop-opacity:1;stop-color:#c0c0c0"
         offset="1"
         id="stop866-7" />
    </radialGradient>
  </defs>
  <sodipodi:namedview
     id="namedview7"
     pagecolor="#ffffff"
     bordercolor="#000000"
     borderopacity="0.25"
     inkscape:showpageshadow="2"
     inkscape:pageopacity="0.0"
     inkscape:pagecheckerboard="0"
     inkscape:deskcolor="#d1d1d1"
     inkscape:zoom="12.671875"
     inkscape:cx="15.270037"
     inkscape:cy="18.189889"
     inkscape:window-width="2560"
     inkscape:window-height="998"
     inkscape:window-x="0"
     inkscape:window-y="0"
     inkscape:window-maximized="1"
     inkscape:current-layer="svg7" />
  <g
     id="g854"
     transform="matrix(1.3333333,0,0,1.3333333,-4.5225532e-4,-3.504174e-5)">
    <g
       id="g856">
      <g
         id="g862">
        <path
           d="m 7.195,0.836 c 0.09,0 0.176,-0.012 0.258,-0.035 1.078,-0.071 2.156,-0.067 3.231,0.008 0.976,0.078 1.921,0.289 2.836,0.636 1.519,0.625 2.558,1.711 3.121,3.254 0.316,0.93 0.507,1.887 0.566,2.867 0.078,1.235 0.051,2.465 -0.086,3.696 -0.105,0.863 -0.328,1.691 -0.672,2.488 -0.637,1.383 -1.672,2.336 -3.101,2.859 C 12.191,17 11,17.207 9.773,17.227 8.398,17.301 7.035,17.195 5.684,16.918 3.203,16.367 1.668,14.852 1.09,12.375 0.844,11.262 0.73,10.133 0.754,8.992 0.727,7.781 0.855,6.582 1.141,5.402 1.75,3.09 3.219,1.656 5.547,1.102 6.09,0.969 6.641,0.879 7.195,0.836 Z"
           style="fill:url(#radialGradient868-3);fill-rule:evenodd;stroke:none"
           id="path870" />
      </g>
    </g>
  </g>
  <g
     id="g7"
     transform="matrix(0.26785714,0,0,0.26785714,-7.2857141,3.4285715)"
     style="stroke-width:3.73333">
    <rect
       x="44"
       y="10"
       width="48"
       height="36"
       rx="3"
       ry="3"
       fill="#f35a23"
       style="stroke-width:3.73333;paint-order:stroke fill markers"
       id="rect1" />
    <rect
       x="46"
       y="12"
       width="44"
       height="32"
       rx="1.048"
       ry="1.067"
       opacity="0.15"
       style="stroke-width:3.73333;paint-order:stroke fill markers"
       id="rect2" />
    <rect
       x="48"
       y="14"
       width="48"
       height="36"
       rx="3"
       ry="3"
       fill="#8bc34a"
       style="stroke-width:3.73333;paint-order:stroke fill markers"
       id="rect3" />
    <rect
       x="50"
       y="16"
       width="44"
       height="32"
       rx="1.048"
       ry="1.067"
       opacity="0.15"
       style="stroke-width:3.73333;paint-order:stroke fill markers"
       id="rect4" />
    <rect
       x="52"
       y="18"
       width="48"
       height="36"
       rx="3"
       ry="3"
       fill="#29b6f6"
       style="stroke-width:3.73333;paint-order:stroke fill markers"
       id="rect5" />
    <path
       d="m 55,20 c -0.58,0 -1.047,0.475 -1.047,1.066 V 50.933 C 53.953,51.524 54.42,52 55,52 h 31.953 l 11,-11 V 21.066 c 0,-0.591 -0.466,-1.067 -1.047,-1.067 z"
       opacity="0.15"
       style="stroke-width:3.73333;paint-order:stroke fill markers"
       id="path5" />
    <path
       d="M 87,52 98,41 H 88.047 C 87.467,41 87,41.475 87,42.066 Z"
       fill="#6fcdf9"
       style="stroke-width:3.73333;paint-order:stroke fill markers"
       id="path6" />
    <path
       d="M 98,41 87,52 h 9.953 C 97.533,52 98,51.525 98,50.934 Z"
       opacity="0.05"
       style="stroke-width:3.73333;paint-order:stroke fill markers"
       id="path7" />
  </g>
</svg>
